images/house.svg

<?xml version="1.0" encoding="utf-8"?>
<!-- Generator: Adobe Illustrator 16.0.0, SVG Export Plug-In . SVG Version: 6.00 Build 0)  -->
<!DOCTYPE svg PUBLIC "-//W3C//DTD SVG 1.1//EN" "http://www.w3.org/Graphics/SVG/1.1/DTD/svg11.dtd">
<svg version="1.1" id="Layer_1" xmlns="http://www.w3.org/2000/svg" xmlns:xlink="http://www.w3.org/1999/xlink" x="0px" y="0px"
	 width="107px" height="67px" viewBox="0 0 107 67" enable-background="new 0 0 107 67" xml:space="preserve">
<g>
	<g>
		<path fill="#F47752" d="M104.631,20.299H57.45v-7.868h1.138c1.309,0,2.371-1.063,2.371-2.374V2.374
			C60.959,1.063,59.896,0,58.588,0H2.327C1.018,0-0.044,1.063-0.044,2.374v7.683c0,1.311,1.062,2.374,2.371,2.374h1.137v50.849
			c0,1.311,1.061,2.373,2.371,2.373H55.08c1.309,0,2.37-1.063,2.37-2.373v-30.55h38.097v30.55c0,1.311,1.063,2.373,2.37,2.373
			c1.311,0,2.372-1.063,2.372-2.373v-30.55h4.342c1.309,0,2.369-1.063,2.369-2.374v-7.683C107,21.361,105.939,20.299,104.631,20.299
			z M102.259,27.981H57.45v-2.935h44.809V27.981z M4.697,7.683V4.748h51.522v2.935h-1.138H5.835H4.697z M8.206,12.431H52.71v10.242
			v7.683v30.551h-13.98V44.232c0-1.311-1.061-2.373-2.37-2.373H24.556c-1.309,0-2.371,1.063-2.371,2.373v16.674H8.206V12.431z
			 M33.989,60.906h-7.062V46.607h7.062V60.906z"/>
		<path fill="#F47752" d="M89.279,47.756v-4.631c0-3.18-2.582-5.768-5.757-5.768H70.036c-3.175,0-5.758,2.588-5.758,5.768v4.631
			c-1.967,0.717-3.379,2.604-3.379,4.82V62c0,1.311,1.061,2.373,2.37,2.373h1.357v0.436c0,1.313,1.062,2.375,2.371,2.375
			s2.371-1.063,2.371-2.375v-0.436H84.19v0.436c0,1.313,1.061,2.375,2.37,2.375c1.309,0,2.37-1.063,2.37-2.375v-0.436h1.357
			c1.312,0,2.372-1.063,2.372-2.373v-9.424C92.659,50.359,91.247,48.473,89.279,47.756z M65.641,59.625v-7.049
			c0-0.213,0.172-0.387,0.383-0.387h21.512c0.211,0,0.385,0.174,0.385,0.387v7.049H65.641z M70.036,42.105h13.486
			c0.559,0,1.017,0.457,1.017,1.02v4.316H69.019v-4.316C69.019,42.563,69.476,42.105,70.036,42.105L70.036,42.105z"/>
		<path fill="#F47752" d="M69.18,54.594c-0.622,0-1.233,0.25-1.676,0.693c-0.438,0.441-0.692,1.057-0.692,1.68
			c0,0.625,0.254,1.234,0.692,1.68c0.444,0.439,1.054,0.693,1.676,0.693c0.628,0,1.236-0.254,1.677-0.693
			c0.44-0.441,0.693-1.055,0.693-1.68c0-0.627-0.253-1.238-0.693-1.68C70.416,54.844,69.808,54.594,69.18,54.594z"/>
		<path fill="#F47752" d="M84.376,54.594c-0.624,0-1.234,0.25-1.678,0.693c-0.44,0.441-0.694,1.053-0.694,1.68
			c0,0.625,0.254,1.234,0.694,1.68c0.443,0.439,1.054,0.693,1.678,0.693c0.623,0,1.234-0.254,1.675-0.693
			c0.439-0.445,0.694-1.055,0.694-1.68c0-0.627-0.255-1.238-0.694-1.68C85.61,54.844,85.002,54.594,84.376,54.594L84.376,54.594z"/>
		<path fill="#F47752" d="M18.938,19.362c-1.31,0-2.371,1.063-2.371,2.374v5.007c0,1.311,1.061,2.374,2.371,2.374
			s2.37-1.063,2.37-2.374v-5.007C21.309,20.425,20.248,19.362,18.938,19.362z"/>
		<path fill="#F47752" d="M30.457,29.116c1.309,0,2.371-1.063,2.371-2.374v-5.007c0-1.311-1.062-2.374-2.371-2.374
			c-1.309,0-2.37,1.063-2.37,2.374v5.007C28.087,28.054,29.148,29.116,30.457,29.116z"/>
		<path fill="#F47752" d="M41.977,29.116c1.309,0,2.371-1.063,2.371-2.374v-5.007c0-1.311-1.062-2.374-2.371-2.374
			c-1.309,0-2.371,1.063-2.371,2.374v5.007C39.606,28.054,40.668,29.116,41.977,29.116z"/>
	</g>
</g>
</svg>

<svg xmlns="http://www.w3.org/2000/svg" width="107.044" height="67.184" viewBox="0 0 107.044 67.184">
  <g id="house" transform="translate(0.044)">
    <g id="Group_1" data-name="Group 1">
      <path id="Path_1" data-name="Path 1" d="M104.631,20.3H57.45V12.431h1.138a2.373,2.373,0,0,0,2.371-2.374V2.374A2.374,2.374,0,0,0,58.588,0H2.327A2.373,2.373,0,0,0-.044,2.374v7.683a2.373,2.373,0,0,0,2.371,2.374H3.464V63.28a2.371,2.371,0,0,0,2.371,2.373H55.08a2.372,2.372,0,0,0,2.37-2.373V32.73h38.1V63.28a2.371,2.371,0,1,0,4.742,0V32.73h4.342A2.371,2.371,0,0,0,107,30.356V22.673A2.371,2.371,0,0,0,104.631,20.3Zm-2.372,7.682H57.45V25.046h44.809ZM4.7,7.683V4.748H56.219V7.683H4.7Zm3.509,4.748h44.5V60.907H38.73V44.232a2.371,2.371,0,0,0-2.37-2.373h-11.8a2.373,2.373,0,0,0-2.371,2.373V60.906H8.206ZM33.989,60.906H26.927v-14.3h7.062Z" fill="#d3ae29"/>
      <path id="Path_2" data-name="Path 2" d="M89.279,47.756V43.125a5.769,5.769,0,0,0-5.757-5.768H70.036a5.77,5.77,0,0,0-5.758,5.768v4.631a5.137,5.137,0,0,0-3.379,4.82V62a2.371,2.371,0,0,0,2.37,2.373h1.357v.436a2.371,2.371,0,1,0,4.742,0v-.436H84.19v.436a2.37,2.37,0,1,0,4.74,0v-.436h1.357A2.372,2.372,0,0,0,92.659,62V52.576A5.135,5.135,0,0,0,89.279,47.756ZM65.641,59.625V52.576a.386.386,0,0,1,.383-.387H87.536a.388.388,0,0,1,.385.387v7.049Zm4.4-17.52H83.522a1.02,1.02,0,0,1,1.017,1.02v4.316H69.019V43.125a1.02,1.02,0,0,1,1.017-1.02Z" fill="#d3ae29"/>
      <path id="Path_3" data-name="Path 3" d="M69.18,54.594a2.384,2.384,0,0,0-1.676.693,2.37,2.37,0,1,0,3.353,0A2.373,2.373,0,0,0,69.18,54.594Z" fill="#d3ae29"/>
      <path id="Path_4" data-name="Path 4" d="M84.376,54.594a2.368,2.368,0,1,0,1.675.693,2.387,2.387,0,0,0-1.675-.693Z" fill="#d3ae29"/>
      <path id="Path_5" data-name="Path 5" d="M18.938,19.362a2.372,2.372,0,0,0-2.371,2.374v5.007a2.371,2.371,0,1,0,4.741,0V21.736A2.371,2.371,0,0,0,18.938,19.362Z" fill="#d3ae29"/>
      <path id="Path_6" data-name="Path 6" d="M30.457,29.116a2.373,2.373,0,0,0,2.371-2.374V21.735a2.371,2.371,0,1,0-4.741,0v5.007A2.371,2.371,0,0,0,30.457,29.116Z" fill="#d3ae29"/>
      <path id="Path_7" data-name="Path 7" d="M41.977,29.116a2.373,2.373,0,0,0,2.371-2.374V21.735a2.371,2.371,0,1,0-4.742,0v5.007A2.372,2.372,0,0,0,41.977,29.116Z" fill="#d3ae29"/>
    </g>
  </g>
</svg>
